X: 115
T: Mr. Englefield's New Hornpipe (The Cobbler's Hoprnpipe)
M:3/2s
L:1/8
Q:160
S:Playford
O:Manuscript
A:English
K:F
F4 D2 EF GFED| E2 C4 G2 F2 E2| F3 G A2 GF DE F2 |A,2 D4 F2 E D2| F4 D2 EF GFED| E2 C4 G2 F2 E2| F3 G A2 GF DE F2 |A,2 D4 F2 E D2:|
|: d4 de f2f e2 d2| e2 c4 g3 f2 e2| f3 g a2 gf efed| A2d4 F2 E2 D2| d4 de f2f e2 d2| e2 c4 g3 f2 e2| f3 g a2 gf efed| A2d4 F2 E2 D2:|

